cireg/static/images/Logo_Small_On_Dark.svg

<svg xmlns="http://www.w3.org/2000/svg" xmlns:xlink="http://www.w3.org/1999/xlink" width="51" height="43" viewBox="0 0 51 43">
  <defs>
    <path id="logo_small_on_dark-a" d="M44.055071,28.0749885 C43.0184897,27.5531455 41.7745921,27.9706199 41.2562683,29.0142726 C38.3538406,34.9632498 32.2378449,38.9294573 25.7072168,38.9294573 C17.2075816,38.9294573 10.1581652,32.771676 8.70728309,24.631125 L13.1646159,24.2136506 L6.11586296,16.385838 L0,25.3618723 L4.56095781,24.9443978 C6.21948792,35.1721874 15.0302633,43 25.7072168,43 C33.896375,43 41.4632528,38.199044 44.9872976,30.7890399 C45.5055883,29.7453538 45.0909557,28.4929305 44.0544076,28.0754561 L44.055071,28.0749885 Z M46.7501824,17.9514005 C45.0916523,7.72361096 36.280877,0 25.7074158,0 C17.5182575,0 10.26252,4.59221874 6.5308272,11.8976873 C6.01253654,12.9413734 6.42716906,14.1937967 7.46371721,14.7156731 C8.50026536,15.2375496 9.74419612,14.8200417 10.26252,13.776389 C13.1649476,7.8274118 19.177451,4.17447713 25.7074158,4.17447713 C34.1035586,4.17447713 41.1523116,10.3322584 42.7073494,18.3686078 L39.0792816,18.6817136 L45.6097771,26.0920518 L51,17.6383615 L46.7501824,17.9514005 Z"/>
    <path id="logo_small_on_dark-c" d="M9.99706266,0.888523828 L0.744767456,11.6790782 C0.127925843,12.3984923 0.641960521,13.6317173 1.66999698,13.6317173 L7.01595762,13.6317173 L3.21213391,22.983838 C3.00652004,23.4976818 3.62336165,23.805988 4.03458939,23.4976818 L14.2126405,11.2680361 C14.9323219,10.4458861 14.3154474,9.1099252 13.1845711,9.1099252 L8.45545211,9.1099252 L11.3340463,1.71057517 C11.5396602,0.88842517 10.5115908,0.271812669 9.99758904,0.88842517 L9.99706266,0.888523828 Z"/>
  </defs>
  <g fill="none" fill-rule="evenodd">
    <mask id="logo_small_on_dark-b" fill="#fff">
      <use xlink:href="#logo_small_on_dark-a"/>
    </mask>
    <use fill="#0C4D6C" xlink:href="#logo_small_on_dark-a"/>
    <g fill="#F7F7F7" mask="url(#logo_small_on_dark-b)">
      <rect width="51" height="43"/>
    </g>
    <g transform="translate(18 9)">
      <mask id="logo_small_on_dark-d" fill="#fff">
        <use xlink:href="#logo_small_on_dark-c"/>
      </mask>
      <g fill="#EEA00A" mask="url(#logo_small_on_dark-d)">
        <rect width="15" height="24"/>
      </g>
    </g>
  </g>
</svg>

<svg xmlns="http://www.w3.org/2000/svg" xmlns:xlink="http://www.w3.org/1999/xlink" width="51" height="43"><defs><path id="a" d="M44.055 28.075a2.07 2.07 0 0 0-2.799.94c-2.902 5.948-9.018 9.914-15.549 9.914-8.5 0-15.549-6.157-17-14.298l4.458-.417-7.05-7.828L0 25.362l4.561-.418C6.219 35.172 15.031 43 25.707 43c8.19 0 15.756-4.801 19.28-12.211.519-1.044.104-2.296-.933-2.714h.001zm2.695-10.124C45.092 7.724 36.28 0 25.707 0 17.518 0 10.263 4.592 6.531 11.898a2.098 2.098 0 0 0 .933 2.818 2.07 2.07 0 0 0 2.799-.94c2.902-5.949 8.914-9.602 15.444-9.602 8.397 0 15.445 6.158 17 14.195l-3.628.313 6.53 7.41L51 17.638l-4.25.313z"/><path id="c" d="M9.997.889L.745 11.679c-.617.72-.103 1.953.925 1.953h5.346l-3.804 9.352c-.205.514.411.822.823.514l10.178-12.23c.72-.822.102-2.158-1.028-2.158h-4.73l2.879-7.4C11.54.889 10.512.273 9.998.889z"/></defs><g fill="none" fill-rule="evenodd"><mask id="b" fill="#fff"><use xlink:href="#a"/></mask><use fill="#0C4D6C" xlink:href="#a"/><g fill="#F7F7F7" mask="url(#b)"><path d="M0 0h51v43H0z"/></g><g transform="translate(18 9)"><mask id="d" fill="#fff"><use xlink:href="#c"/></mask><g fill="#EEA00A" mask="url(#d)"><path d="M0 0h15v24H0z"/></g></g></g></svg>
